X:576
T:Logan Water.
T:uisge logain.
N:"Slow and plaintive."
B:O'Neill's 576
Z:Transcribed by J.B. Walsh walsh@math.ubc.ca
M:C
L:1/8
<START_ANN> %Q:40 <END_ANN>
K:Gm
"p"GA|B2 AG G3 B|FDCD F3A|"P"cB2 AG G3 B|FG Bc Bcd3 d|
"p"de2 edc ed2 cB|dcB "pp"AG F3 B|"cresc."GABc dedc|"p"B2 TA2 "pp"GAG2||
df|g2 dB G3 B|"p"FD CD F3 f|g2 "cresc."G2 G2FG/A/|BABc d3 d|
de2 "p"edc cd2 dcB|dcB AG "pp"F3 B|"cresc."GABc dedc|"p"B2 TA2 "pp"GAG2||
